X:1
T:Andar vidi un fanciul
T:Luca Marenzio
T:Source: Il secondo Libro delle canzonette alla Napolitana a tre voci---Venetia---G.Vincenti---1587. Editor : André Vierendeels (01/05/17).
T:Original clefs : G2, C1, F3 Editorial accidentals above the staff "Seconda impressione" Music collected by Attilio Gualtieri m5 in T :  "C" notated as "D" in original print 
T:Andar vidi un fanciul
T:©
T:©
C:Luca Marenzio
Z:©
%%score [ 1 2 3 ]
L:1/8
Q:1/4=120
M:4/4
K:C
V:1 treble nm="Soprano 1" snm="S 1"
V:2 treble nm="Soprano 2" snm="S 2"
V:3 treble-8 nm="Tenor" snm="T"
V:1
"^1)" B4 d4 | d2 e4 d2 | c4 B2 c2- | c2 e2 d4 |[M:2/4] c4 :: z2 e2 |[M:4/4] e3 f d2 g2- | %7
w: An- dar|vi- di'un fan-|ciul ig- nu-|* do'e cie-|co,|con|l'ar- co rot- to'a|
w: Io che|lo ri- co-|nob- bial pri-|* mo'in- con-|tro,|per-|che gran tem- po|
 g2 f4 e2- | e2 d4 e2 | ^c2 d4 c2 | d2 B2 c2 B2 | A2 G2 A4 | z2 d2 e2 d2 | c2 B2 A2 d2 | %14
w: _ pas- si|_ len- ti'e|tar- * *|di, da la fa-|re- tra sua,|da la fa-|re- tra sua ver-|
w: _ lo por-|* tai nel|co- * *|re, gli dis- si,|o- ve vai|gli dis- si,|o- ve vai mi-|
 BABc d3 c/B/ | A2 G2 A4 | G8 :| %17
w: san- * * * * * *|* do'i dar-|di.|
w: se- * * * * * *|* ro'A- mo-|re.|
V:2
"^2)""^1)" G4 B4 | B2 c4 G2- | G2 ^F2 G2 A2- | A2 c4 B2 |[M:2/4] c4 :: z2 ^c2 | %6
w: An- dar|vi d'un fan-|ciul ig- nu- do'e|_ cie- *|co,|con|
w: E- gli'a-|pren- do le|_ lab- bia'in fle-|* bil suo-|no|dis-|
[M:4/4] ^c3 d B2 c2 | A3 B c2 c2 | B3 A G3 F | E2 D2 E4 | D4 z2 D2 | D2 E2 F2 F2 | G4 z2 D2 | %13
w: l'ar- co rot- to'a|pas- * * si|le- * * *|* ti'e tar-|di, da|la fa- re- tra|sua, da|
w: se, u- na don-|n'al- * * tie-|ra, e pel- *|* le- gri-|na, a|si per- * ver-|sa, a|
 E2 G2 ^F2 F2 | G2 D2 DCDE | ^F2 G4 F2 | G8 :| %17
w: la fa- re- tra|sua ver- san- * * *|* co'i dar-|di.|
w: si per- ver- sa|sor- te mi _ _ _|de- sti- *|na.|
V:3
"^3)""^1)""^4)" G4 G4 | G2 c4 B2 | A4 G2 F2- | F2 E2 G4 |[M:2/4] C4 :: z2 A2 |[M:4/4] A3 D G2 E2 | %7
w: An- dar|vi d'un fan-|ciul ig- nu-|* do'e cie-|co,|con|l'ar- co rot- to'a|
w: El- la|con gli'oc- chi|suoi m'hà tol-|* to'il Re-|gno,|e|pe- ro mi con-|
 F4 C4 | G4 G4 | A8 | D2 G2 A2 G2 | F2 E2 D2 d2 | e2 d2 c2 B2 | A2 G2 d4 | G4 G3 F/E/ | D8 | G8 :| %17
w: pas- si|len- ti'e|tar-|di, da la fa-|re- tra sua, da|la fa- re- tra|sua ver- san-|do'i tar- * *||di.|
w: vien men-|di- co'e|tri-|sto, an- dar con|gli al- tri po-|ve- ri, al- tre|po- ve- ri|a San- * *|Si-|sto.|

